icons/themes/default/stack.svg

<svg viewBox="0 0 16 16" fill="none" xmlns="http://www.w3.org/2000/svg">
<path fill-rule="evenodd" clip-rule="evenodd" d="M2.06164 10.5C2.14173 10.6394 2.25814 10.7626 2.41088 10.8552L6.96322 13.6143C7.60037 14.0005 8.39936 14.0005 9.03651 13.6143L13.5889 10.8552C13.7416 10.7626 13.8581 10.6394 13.9381 10.5C14.1948 10.9466 14.0784 11.5585 13.5889 11.8552L9.03651 14.6143C8.39936 15.0005 7.60037 15.0005 6.96322 14.6143L2.41088 11.8552C1.92138 11.5585 1.80496 10.9466 2.06164 10.5Z" fill="currentColor"/>
<path fill-rule="evenodd" clip-rule="evenodd" d="M2.06164 7.5C2.14173 7.63935 2.25814 7.76261 2.41088 7.85519L6.96322 10.6143C7.60037 11.0005 8.39936 11.0005 9.03651 10.6143L13.5889 7.85519C13.7416 7.76262 13.8581 7.63936 13.9381 7.5C14.1948 7.94661 14.0784 8.5585 13.5889 8.85519L9.03651 11.6143C8.39936 12.0005 7.60037 12.0005 6.96322 11.6143L2.41088 8.85519C1.92138 8.5585 1.80496 7.94661 2.06164 7.5Z" fill="currentColor"/>
<path fill-rule="evenodd" clip-rule="evenodd" d="M2.41088 4.14485C1.76864 4.53411 1.76864 5.46597 2.41088 5.85522L6.96322 8.61438C7.60037 9.00055 8.39936 9.00055 9.03651 8.61438L13.5889 5.85522C14.2311 5.46597 14.2311 4.5341 13.5889 4.14485L9.03651 1.38569C8.39936 0.999526 7.60037 0.999528 6.96322 1.3857L2.41088 4.14485ZM3.70539 4.57244C3.38427 4.76707 3.38427 5.233 3.70539 5.42763L7.74071 7.87342C7.9 7.96996 8.09975 7.96996 8.25904 7.87342L12.2944 5.42763C12.6155 5.233 12.6155 4.76707 12.2944 4.57244L8.25903 2.12665C8.09975 2.03011 7.9 2.03011 7.74071 2.12666L3.70539 4.57244Z" fill="currentColor"/>
</svg>

<svg xmlns="http://www.w3.org/2000/svg" fill="none" viewBox="0 0 16 16">
  <path fill="currentColor" fill-rule="evenodd" d="M2.062 10.5c.08.14.196.263.349.355l4.552 2.76a2 2 0 0 0 2.074 0l4.552-2.76a.992.992 0 0 0 .35-.355c.256.447.14 1.059-.35 1.355l-4.552 2.76a2 2 0 0 1-2.074 0l-4.552-2.76a1.001 1.001 0 0 1-.35-1.355Z" clip-rule="evenodd"/>
  <path fill="currentColor" fill-rule="evenodd" d="M2.062 7.5c.08.14.196.263.349.355l4.552 2.76a2 2 0 0 0 2.074 0l4.552-2.76a.992.992 0 0 0 .35-.355c.256.447.14 1.059-.35 1.355l-4.552 2.76a2 2 0 0 1-2.074 0l-4.552-2.76A1.001 1.001 0 0 1 2.06 7.5Z" clip-rule="evenodd"/>
  <path fill="currentColor" fill-rule="evenodd" d="M2.41 4.145a1 1 0 0 0 0 1.71l4.553 2.76a2 2 0 0 0 2.074 0l4.552-2.76a1 1 0 0 0 0-1.71l-4.552-2.76a2 2 0 0 0-2.074 0l-4.552 2.76Zm1.295.427a.5.5 0 0 0 0 .856l4.036 2.445a.5.5 0 0 0 .518 0l4.035-2.445a.5.5 0 0 0 0-.856L8.26 2.127a.5.5 0 0 0-.518 0L3.705 4.572Z" clip-rule="evenodd"/>
</svg>
